apps/site/public/icons/companies/github.svg

<svg width="48" height="48" viewBox="0 0 48 48" fill="none" xmlns="http://www.w3.org/2000/svg">
<path d="M16.8185 35.052C16.8185 34.8941 16.6606 34.7361 16.4237 34.7361C16.1868 34.7361 16.0289 34.8941 16.0289 35.052C16.0289 35.2099 16.1868 35.3678 16.4237 35.2889C16.6606 35.2889 16.8185 35.2099 16.8185 35.052ZM14.3707 34.6572C14.4497 34.4993 14.6866 34.4203 14.9234 34.4993C15.1603 34.5782 15.2393 34.7361 15.2393 34.8941C15.1603 35.052 14.9234 35.1309 14.7655 35.052C14.5286 35.052 14.3707 34.8151 14.3707 34.6572ZM17.9239 34.5782C18.0818 34.4993 18.3187 34.6572 18.3187 34.8151C18.3977 34.973 18.2398 35.052 18.0029 35.1309C17.766 35.2099 17.5291 35.1309 17.5291 34.973C17.5291 34.7361 17.687 34.5782 17.9239 34.5782ZM23.0563 4.25749C34.0318 4.25749 42.9543 12.6273 42.9543 23.5238C42.9543 32.2884 37.585 39.7896 29.689 42.3953C28.6625 42.6322 28.2677 42.0005 28.2677 41.4478C28.2677 40.8161 28.3467 37.4998 28.3467 34.8941C28.3467 32.999 27.715 31.8146 27.0043 31.1829C31.4261 30.7092 36.0848 30.0775 36.0848 22.4973C36.0848 20.2864 35.2952 19.2599 34.0318 17.8387C34.1897 17.2859 34.9004 15.233 33.7949 12.4694C32.1368 11.9166 28.3467 14.6013 28.3467 14.6013C26.7675 14.1275 25.1093 13.9696 23.3722 13.9696C21.714 13.9696 20.0558 14.1275 18.4766 14.6013C18.4766 14.6013 14.6076 11.9956 13.0284 12.4694C11.9229 15.233 12.5546 17.2859 12.7915 17.8387C11.5281 19.2599 10.8965 20.2864 10.8965 22.4973C10.8965 30.0775 15.3972 30.7092 19.819 31.1829C19.1873 31.7357 18.7135 32.6042 18.5556 33.8676C17.3712 34.4203 14.5286 35.2889 12.7915 32.2094C11.6861 30.3144 9.71206 30.1565 9.71206 30.1565C7.81701 30.1565 9.6331 31.4198 9.6331 31.4198C10.8965 31.9725 11.765 34.2624 11.765 34.2624C12.9494 37.8156 18.4766 36.6312 18.4766 36.6312C18.4766 38.2894 18.4766 40.974 18.4766 41.5267C18.4766 42.0005 18.1608 42.6322 17.1343 42.4743C9.2383 39.7896 3.79004 32.2884 3.79004 23.5238C3.79004 12.6273 12.1598 4.25749 23.0563 4.25749ZM11.4492 31.4988C11.5281 31.4198 11.6861 31.4988 11.844 31.5777C12.0019 31.7357 12.0019 31.9725 11.9229 32.0515C11.765 32.1305 11.6071 32.0515 11.4492 31.9725C11.3702 31.8146 11.2913 31.5777 11.4492 31.4988ZM10.5806 30.8671C10.6596 30.7881 10.7385 30.7881 10.8965 30.8671C11.0544 30.9461 11.1333 31.025 11.1333 31.104C11.0544 31.2619 10.8965 31.2619 10.7385 31.1829C10.5806 31.104 10.5017 31.025 10.5806 30.8671ZM13.1073 33.7097C13.2653 33.5517 13.5021 33.6307 13.6601 33.7886C13.818 33.9465 13.818 34.1834 13.739 34.2624C13.6601 34.4203 13.4232 34.3413 13.2653 34.1834C13.0284 34.0255 13.0284 33.7886 13.1073 33.7097ZM12.2388 32.5253C12.3967 32.4463 12.5546 32.5253 12.7125 32.6832C12.7915 32.8411 12.7915 33.078 12.7125 33.1569C12.5546 33.2359 12.3967 33.1569 12.2388 32.999C12.0809 32.8411 12.0809 32.6042 12.2388 32.5253Z" fill="#2D3748"/>
</svg>

<svg xmlns="http://www.w3.org/2000/svg" width="48" height="48" fill="none" viewBox="0 0 48 48"><path fill="#2d3748" d="M16.819 35.052c0-.158-.158-.316-.395-.316s-.395.158-.395.316.158.316.395.237c.237 0 .395-.08.395-.237m-2.448-.395c.079-.158.316-.237.552-.158.237.08.316.237.316.395a.38.38 0 0 1-.474.158c-.236 0-.394-.237-.394-.395m3.553-.079c.158-.079.395.08.395.237.079.158-.08.237-.316.316-.237.079-.474 0-.474-.158 0-.237.158-.395.395-.395m5.132-30.32c10.976 0 19.898 8.37 19.898 19.266 0 8.764-5.369 16.266-13.265 18.871-1.026.237-1.421-.395-1.421-.947 0-.632.079-3.948.079-6.554 0-1.895-.632-3.08-1.343-3.711 4.422-.474 9.08-1.105 9.08-8.686 0-2.21-.789-3.237-2.052-4.658.158-.553.868-2.606-.237-5.37-1.658-.552-5.448 2.132-5.448 2.132-1.58-.474-3.238-.631-4.975-.631-1.658 0-3.316.157-4.895.631 0 0-3.87-2.605-5.449-2.132-1.105 2.764-.473 4.817-.237 5.37-1.263 1.42-1.895 2.447-1.895 4.658 0 7.58 4.501 8.212 8.923 8.686-.632.553-1.105 1.421-1.263 2.685-1.185.552-4.027 1.42-5.765-1.659-1.105-1.895-3.079-2.053-3.079-2.053-1.895 0-.079 1.264-.079 1.264 1.264.552 2.132 2.842 2.132 2.842 1.184 3.554 6.712 2.37 6.712 2.37v4.895c0 .474-.316 1.105-1.343.947C9.238 39.79 3.79 32.288 3.79 23.524c0-10.897 8.37-19.267 19.266-19.267M11.45 31.497c.08-.078.237 0 .395.08.158.158.158.395.079.473-.158.08-.316 0-.474-.079-.079-.157-.158-.394 0-.473m-.868-.63c.079-.08.158-.08.316 0q.236.117.236.236c-.079.158-.236.158-.394.079s-.237-.158-.158-.316m2.526 2.842c.158-.158.395-.08.553.079.158.157.158.394.079.473-.079.158-.316.08-.474-.079-.237-.157-.237-.394-.158-.473m-.868-1.185c.158-.079.316 0 .473.158.08.158.08.395 0 .474-.157.079-.315 0-.473-.158s-.158-.395 0-.474"/></svg>
